X: 36146
T: Scotch Mary
R: reel
M: 4/4
K: Adorian
(3GAB|cE E2 cded|cE E2 G2 AB|cE E2 cded|cABG A2 (3GAB|
cE E2 cded|cE E2 G2 AB|cE E2 cded|cABG A2 (3Bcd||
eaaf gfed|(3Bcd ef g2 fg|eaaf gfed|cABG A2 (3Bcd|
eaaf gfed|(3Bcd ef g2 fg|af (3gfe fded|(3cBA BG A2||

